client/src/assets/logo.svg

<svg width="236" height="40" viewBox="0 0 236 40" fill="none" xmlns="http://www.w3.org/2000/svg">
<path d="M35 1H5C2.79086 1 1 2.79086 1 5V35C1 37.2091 2.79086 39 5 39H35C37.2091 39 39 37.2091 39 35V5C39 2.79086 37.2091 1 35 1Z" stroke="#343B41" stroke-width="2"/>
<path d="M23.936 9.81C24.236 9.27 24.666 9 25.226 9H30.716C30.936 9 31.126 9.08 31.286 9.24C31.446 9.4 31.526 9.59 31.526 9.81V29.19C31.526 29.41 31.446 29.6 31.286 29.76C31.126 29.92 30.936 30 30.716 30H25.286C25.066 30 24.876 29.92 24.716 29.76C24.6392 29.6864 24.5783 29.5979 24.537 29.4998C24.4957 29.4018 24.475 29.2964 24.476 29.19V19.89L22.286 24.21C22.226 24.35 22.086 24.51 21.866 24.69C21.646 24.87 21.366 24.96 21.026 24.96H18.986C18.646 24.96 18.366 24.87 18.146 24.69C17.926 24.51 17.786 24.35 17.726 24.21L15.536 19.89V29.19C15.536 29.41 15.456 29.6 15.296 29.76C15.136 29.92 14.946 30 14.726 30H9.296C9.076 30 8.886 29.92 8.726 29.76C8.6492 29.6864 8.58828 29.5979 8.54701 29.4998C8.50573 29.4018 8.48497 29.2964 8.486 29.19V9.81C8.486 9.59 8.566 9.4 8.726 9.24C8.886 9.08 9.076 9 9.296 9H14.786C15.346 9 15.776 9.27 16.076 9.81L20.006 17.01L23.936 9.81ZM70.471 9.81C70.771 9.27 71.201 9 71.761 9H77.251C77.471 9 77.661 9.08 77.821 9.24C77.981 9.4 78.061 9.59 78.061 9.81V29.19C78.061 29.41 77.981 29.6 77.821 29.76C77.661 29.92 77.471 30 77.251 30H71.821C71.601 30 71.411 29.92 71.251 29.76C71.1742 29.6864 71.1133 29.5979 71.072 29.4998C71.0307 29.4018 71.01 29.2964 71.011 29.19V19.89L68.821 24.21C68.761 24.35 68.621 24.51 68.401 24.69C68.181 24.87 67.901 24.96 67.561 24.96H65.521C65.181 24.96 64.901 24.87 64.681 24.69C64.461 24.51 64.321 24.35 64.261 24.21L62.071 19.89V29.19C62.071 29.41 61.991 29.6 61.831 29.76C61.671 29.92 61.481 30 61.261 30H55.831C55.611 30 55.421 29.92 55.261 29.76C55.1842 29.6864 55.1233 29.5979 55.082 29.4998C55.0407 29.4018 55.02 29.2964 55.021 29.19V9.81C55.021 9.59 55.101 9.4 55.261 9.24C55.421 9.08 55.611 9 55.831 9H61.321C61.881 9 62.311 9.27 62.611 9.81L66.541 17.01L70.471 9.81ZM96.109 23.85H101.539C101.759 23.85 101.949 23.93 102.109 24.09C102.269 24.25 102.349 24.44 102.349 24.66V29.19C102.349 29.41 102.269 29.6 102.109 29.76C101.949 29.92 101.759 30 101.539 30H82.519C82.299 30 82.109 29.92 81.949 29.76C81.8722 29.6864 81.8113 29.5979 81.77 29.4998C81.7287 29.4018 81.708 29.2964 81.709 29.19V24.66C81.709 24.44 81.789 24.25 81.949 24.09C82.109 23.93 82.299 23.85 82.519 23.85H88.009V15.15H82.519C82.299 15.15 82.109 15.07 81.949 14.91C81.8722 14.8364 81.8113 14.7479 81.77 14.6498C81.7287 14.5518 81.708 14.4464 81.709 14.34V9.81C81.709 9.59 81.789 9.4 81.949 9.24C82.109 9.08 82.299 9 82.519 9H101.539C101.759 9 101.949 9.08 102.109 9.24C102.269 9.4 102.349 9.59 102.349 9.81V14.34C102.349 14.56 102.269 14.75 102.109 14.91C101.949 15.07 101.759 15.15 101.539 15.15H96.109V23.85ZM126.908 9C127.128 9 127.318 9.08 127.478 9.24C127.638 9.4 127.718 9.59 127.718 9.81V29.19C127.718 29.41 127.638 29.6 127.478 29.76C127.318 29.92 127.128 30 126.908 30H122.078C121.598 30 121.198 29.79 120.878 29.37L114.338 21.03V29.19C114.338 29.41 114.258 29.6 114.098 29.76C113.938 29.92 113.748 30 113.528 30H107.948C107.728 30 107.538 29.92 107.378 29.76C107.301 29.6864 107.24 29.5979 107.199 29.4998C107.158 29.4018 107.137 29.2964 107.138 29.19V9.81C107.138 9.59 107.218 9.4 107.378 9.24C107.538 9.08 107.728 9 107.948 9H112.808C113.288 9 113.678 9.2 113.978 9.6L120.518 18.63V9.81C120.518 9.59 120.598 9.4 120.758 9.24C120.918 9.08 121.108 9 121.328 9H126.908ZM142.916 9C146.296 9 148.996 9.73 151.016 11.19C153.056 12.65 154.076 14.91 154.076 17.97V21.03C154.076 24.15 153.066 26.43 151.046 27.87C149.046 29.29 146.336 30 142.916 30H133.346C133.126 30 132.936 29.92 132.776 29.76C132.699 29.6864 132.638 29.5979 132.597 29.4998C132.556 29.4018 132.535 29.2964 132.536 29.19V9.81C132.536 9.59 132.616 9.4 132.776 9.24C132.936 9.08 133.126 9 133.346 9H142.916ZM143.066 24.15C144.006 24.15 144.746 23.93 145.286 23.49C145.846 23.03 146.126 22.39 146.126 21.57V17.43C146.126 16.61 145.846 15.98 145.286 15.54C144.746 15.08 144.006 14.85 143.066 14.85H140.336V24.15H143.066ZM164.174 28.98C163.914 29.66 163.464 30 162.824 30H157.154C156.974 30 156.814 29.94 156.674 29.82C156.557 29.6876 156.493 29.5167 156.494 29.34L156.524 29.16L163.064 9.99C163.144 9.73 163.294 9.5 163.514 9.3C163.734 9.1 164.034 9 164.414 9H172.754C173.134 9 173.434 9.1 173.654 9.3C173.874 9.5 174.024 9.73 174.104 9.99L180.644 29.16L180.674 29.34C180.674 29.52 180.604 29.68 180.464 29.82C180.405 29.8792 180.335 29.9257 180.258 29.9566C180.18 29.9876 180.097 30.0023 180.014 30H174.344C173.704 30 173.254 29.66 172.994 28.98L172.244 26.88H164.924L164.174 28.98ZM168.584 14.79L166.454 21.03H170.714L168.584 14.79ZM203.762 23.85C203.982 23.85 204.172 23.93 204.332 24.09C204.492 24.25 204.572 24.44 204.572 24.66V29.19C204.572 29.41 204.492 29.6 204.332 29.76C204.172 29.92 203.982 30 203.762 30H186.242C186.022 30 185.832 29.92 185.672 29.76C185.595 29.6864 185.534 29.5979 185.493 29.4998C185.452 29.4018 185.431 29.2964 185.432 29.19V9.81C185.432 9.59 185.512 9.4 185.672 9.24C185.832 9.08 186.022 9 186.242 9H192.722C192.942 9 193.132 9.08 193.292 9.24C193.452 9.4 193.532 9.59 193.532 9.81V23.85H203.762ZM229.251 23.85C229.471 23.85 229.661 23.93 229.821 24.09C229.981 24.25 230.061 24.44 230.061 24.66V29.19C230.061 29.41 229.981 29.6 229.821 29.76C229.661 29.92 229.471 30 229.251 30H211.731C211.511 30 211.321 29.92 211.161 29.76C211.084 29.6864 211.023 29.5979 210.982 29.4998C210.941 29.4018 210.92 29.2964 210.921 29.19V9.81C210.921 9.59 211.001 9.4 211.161 9.24C211.321 9.08 211.511 9 211.731 9H218.211C218.431 9 218.621 9.08 218.781 9.24C218.941 9.4 219.021 9.59 219.021 9.81V23.85H229.251Z" fill="#343B41"/>
</svg>

<svg xmlns="http://www.w3.org/2000/svg" width="236" height="40" fill="none" viewBox="0 0 236 40">
  <rect width="38" height="38" x="1" y="1" stroke="#343B41" stroke-width="2" rx="4"/>
  <path fill="#343B41" d="M23.936 9.81c.3-.54.73-.81 1.29-.81h5.49c.22 0 .41.08.57.24.16.16.24.35.24.57v19.38c0 .22-.08.41-.24.57-.16.16-.35.24-.57.24h-5.43c-.22 0-.41-.08-.57-.24a.779.779 0 0 1-.24-.57v-9.3l-2.19 4.32c-.06.14-.2.3-.42.48-.22.18-.5.27-.84.27h-2.04c-.34 0-.62-.09-.84-.27-.22-.18-.36-.34-.42-.48l-2.19-4.32v9.3c0 .22-.08.41-.24.57-.16.16-.35.24-.57.24h-5.43c-.22 0-.41-.08-.57-.24a.779.779 0 0 1-.24-.57V9.81c0-.22.08-.41.24-.57.16-.16.35-.24.57-.24h5.49c.56 0 .99.27 1.29.81l3.93 7.2 3.93-7.2Zm46.535 0c.3-.54.73-.81 1.29-.81h5.49c.22 0 .41.08.57.24.16.16.24.35.24.57v19.38c0 .22-.08.41-.24.57-.16.16-.35.24-.57.24h-5.43c-.22 0-.41-.08-.57-.24a.779.779 0 0 1-.24-.57v-9.3l-2.19 4.32c-.06.14-.2.3-.42.48-.22.18-.5.27-.84.27h-2.04c-.34 0-.62-.09-.84-.27-.22-.18-.36-.34-.42-.48l-2.19-4.32v9.3c0 .22-.08.41-.24.57-.16.16-.35.24-.57.24h-5.43c-.22 0-.41-.08-.57-.24a.779.779 0 0 1-.24-.57V9.81c0-.22.08-.41.24-.57.16-.16.35-.24.57-.24h5.49c.56 0 .99.27 1.29.81l3.93 7.2 3.93-7.2Zm25.638 14.04h5.43c.22 0 .41.08.57.24.16.16.24.35.24.57v4.53c0 .22-.08.41-.24.57-.16.16-.35.24-.57.24h-19.02c-.22 0-.41-.08-.57-.24a.779.779 0 0 1-.24-.57v-4.53c0-.22.08-.41.24-.57.16-.16.35-.24.57-.24h5.49v-8.7h-5.49c-.22 0-.41-.08-.57-.24a.779.779 0 0 1-.24-.57V9.81c0-.22.08-.41.24-.57.16-.16.35-.24.57-.24h19.02c.22 0 .41.08.57.24.16.16.24.35.24.57v4.53c0 .22-.08.41-.24.57-.16.16-.35.24-.57.24h-5.43v8.7ZM126.908 9c.22 0 .41.08.57.24.16.16.24.35.24.57v19.38c0 .22-.08.41-.24.57-.16.16-.35.24-.57.24h-4.83c-.48 0-.88-.21-1.2-.63l-6.54-8.34v8.16c0 .22-.08.41-.24.57-.16.16-.35.24-.57.24h-5.58c-.22 0-.41-.08-.57-.24a.779.779 0 0 1-.24-.57V9.81c0-.22.08-.41.24-.57.16-.16.35-.24.57-.24h4.86c.48 0 .87.2 1.17.6l6.54 9.03V9.81c0-.22.08-.41.24-.57.16-.16.35-.24.57-.24h5.58Zm16.008 0c3.38 0 6.08.73 8.1 2.19 2.04 1.46 3.06 3.72 3.06 6.78v3.06c0 3.12-1.01 5.4-3.03 6.84-2 1.42-4.71 2.13-8.13 2.13h-9.57c-.22 0-.41-.08-.57-.24a.779.779 0 0 1-.24-.57V9.81c0-.22.08-.41.24-.57.16-.16.35-.24.57-.24h9.57Zm.15 15.15c.94 0 1.68-.22 2.22-.66.56-.46.84-1.1.84-1.92v-4.14c0-.82-.28-1.45-.84-1.89-.54-.46-1.28-.69-2.22-.69h-2.73v9.3h2.73Zm21.108 4.83c-.26.68-.71 1.02-1.35 1.02h-5.67c-.18 0-.34-.06-.48-.18a.717.717 0 0 1-.18-.48l.03-.18 6.54-19.17c.08-.26.23-.49.45-.69.22-.2.52-.3.9-.3h8.34c.38 0 .68.1.9.3.22.2.37.43.45.69l6.54 19.17.03.18c0 .18-.07.34-.21.48a.61.61 0 0 1-.45.18h-5.67c-.64 0-1.09-.34-1.35-1.02l-.75-2.1h-7.32l-.75 2.1Zm4.41-14.19-2.13 6.24h4.26l-2.13-6.24Zm35.178 9.06c.22 0 .41.08.57.24.16.16.24.35.24.57v4.53c0 .22-.08.41-.24.57-.16.16-.35.24-.57.24h-17.52c-.22 0-.41-.08-.57-.24a.779.779 0 0 1-.24-.57V9.81c0-.22.08-.41.24-.57.16-.16.35-.24.57-.24h6.48c.22 0 .41.08.57.24.16.16.24.35.24.57v14.04h10.23Zm25.489 0c.22 0 .41.08.57.24.16.16.24.35.24.57v4.53c0 .22-.08.41-.24.57-.16.16-.35.24-.57.24h-17.52c-.22 0-.41-.08-.57-.24a.779.779 0 0 1-.24-.57V9.81c0-.22.08-.41.24-.57.16-.16.35-.24.57-.24h6.48c.22 0 .41.08.57.24.16.16.24.35.24.57v14.04h10.23Z"/>
</svg>
